img/eye.svg

<?xml version="1.0" encoding="UTF-8"?>
<!-- Generated by Pixelmator Pro 3.1.1 -->
<svg width="47" height="36" viewBox="0 0 47 36" xmlns="http://www.w3.org/2000/svg" xmlns:xlink="http://www.w3.org/1999/xlink">
    <path id="path1" fill="#currentcolor" fill-rule="evenodd" stroke="none" d="M 11.199219 35.710938 C 17.136719 35.710938 21.882813 28.484375 21.882813 17.898438 C 21.882813 7.292969 17.136719 0.105469 11.199219 0.105469 C 5.242188 0.105469 0.496094 7.292969 0.496094 17.898438 C 0.496094 28.484375 5.242188 35.710938 11.199219 35.710938 Z M 35.457031 35.710938 C 41.414063 35.710938 46.160156 28.484375 46.160156 17.898438 C 46.160156 7.292969 41.414063 0.105469 35.457031 0.105469 C 29.519531 0.105469 24.773438 7.292969 24.773438 17.898438 C 24.773438 28.484375 29.519531 35.710938 35.457031 35.710938 Z M 6.980469 24.792969 C 10.242188 24.792969 12.410156 22.527344 12.410156 19.089844 C 12.410156 15.710938 10.242188 13.425781 6.980469 13.425781 C 5.574219 13.425781 4.382813 13.835938 3.484375 14.578125 C 4.246094 7.527344 7.46875 2.898438 11.199219 2.859375 C 15.515625 2.839844 19.128906 8.953125 19.128906 17.898438 C 19.128906 26.785156 15.515625 32.917969 11.199219 32.957031 C 7.976563 32.957031 5.125 29.5 3.914063 23.953125 C 4.753906 24.5 5.789063 24.792969 6.980469 24.792969 Z M 31.21875 24.792969 C 34.480469 24.792969 36.6875 22.527344 36.6875 19.089844 C 36.6875 15.710938 34.480469 13.425781 31.21875 13.425781 C 29.832031 13.425781 28.621094 13.835938 27.703125 14.578125 C 28.484375 7.527344 31.707031 2.898438 35.457031 2.878906 C 39.734375 2.878906 43.367188 8.992188 43.367188 17.898438 C 43.367188 26.804688 39.734375 32.917969 35.457031 32.9375 C 32.214844 32.9375 29.363281 29.460938 28.152344 23.953125 C 28.992188 24.480469 30.046875 24.792969 31.21875 24.792969 Z M 5.4375 18.425781 C 4.734375 18.328125 4.304688 17.488281 4.460938 16.628906 C 4.636719 15.789063 5.300781 15.164063 5.964844 15.300781 C 6.667969 15.4375 7.097656 16.238281 6.921875 17.078125 C 6.765625 17.9375 6.121094 18.542969 5.4375 18.425781 Z M 29.675781 18.425781 C 28.992188 18.308594 28.542969 17.488281 28.71875 16.628906 C 28.894531 15.789063 29.539063 15.164063 30.222656 15.300781 C 30.925781 15.417969 31.335938 16.238281 31.160156 17.078125 C 31.003906 17.9375 30.359375 18.542969 29.675781 18.425781 Z"/>
</svg>

<svg width="47" height="36" viewBox="0 0 47 36" xmlns="http://www.w3.org/2000/svg" xmlns:xlink="http://www.w3.org/1999/xlink">
	<path id="path1" fill="#currentcolor" fill-rule="evenodd" stroke="none" d="M11.2 35.71c5.94 0 10.68-7.23 10.68-17.81C21.88 7.3 17.14.1 11.2.1 5.24.1.5 7.3.5 17.9c0 10.58 4.74 17.8 10.7 17.8Zm24.26 0c5.95 0 10.7-7.23 10.7-17.81C46.16 7.3 41.41.1 35.46.1c-5.94 0-10.69 7.2-10.69 17.8 0 10.58 4.75 17.81 10.69 17.81ZM6.98 24.8c3.26 0 5.43-2.26 5.43-5.7 0-3.38-2.17-5.66-5.43-5.66-1.4 0-2.6.4-3.5 1.15C4.25 7.53 7.47 2.9 11.2 2.86c4.32-.02 7.93 6.1 7.93 15.04 0 8.89-3.61 15.02-7.93 15.06-3.22 0-6.07-3.46-7.29-9a5.6 5.6 0 0 0 3.07.83Zm24.24 0c3.26 0 5.47-2.26 5.47-5.7 0-3.38-2.21-5.66-5.47-5.66-1.39 0-2.6.4-3.52 1.15.78-7.05 4-11.68 7.76-11.7 4.27 0 7.9 6.11 7.9 15.02 0 8.9-3.63 15.02-7.9 15.04-3.25 0-6.1-3.48-7.3-8.99.83.53 1.89.84 3.06.84ZM5.44 18.43c-.7-.1-1.14-.94-.98-1.8.18-.84.84-1.47 1.5-1.33.7.14 1.14.94.96 1.78-.15.86-.8 1.46-1.48 1.35Zm24.24 0c-.69-.12-1.14-.94-.96-1.8.17-.84.82-1.47 1.5-1.33.7.12 1.12.94.94 1.78-.16.86-.8 1.46-1.48 1.35Z"/>
</svg>
